!!!COM: Vivaldi, Antonio Lucio
!!!CDT: 1678/03/04-1741/08/28
!!!OPR: 12 Sonatas for Violin and Basso continuo
!!!OTL: Sonata in E minor, op. @{OPS}, no. @{ONM} (@{SCT})
!!!OPS: 2
!!!ONM: 9
!!!OMV: 3. Giga
!!!SCT: RV 16
!!!SCA: Antonio Vivaldi: Thematisch-systematisches Verzeichnis seiner Werke (Ryom-Verzeichnis)
!!!OMD: Allegro
!!!key: e
**kern	**fb	**kern
*part2	*	*part1
*staff2	*	*staff1
*ICklav	*	*ICstr
*Icemba	*	*Ivioln
*I"Basso continuo	*	*I"Violino
*I'bc	*	*I'v
*>[A,A,B,B]	*>[A,A,B,B]	*>[A,A,B,B]
*>norep[A,B]	*>norep[A,B]	*>norep[A,B]
*>A	*>A	*>A
*clefF4	*	*clefG2
*k[f#]	*	*k[f#]
*e:	*	*e:
*M12/8	*	*M12/8
*MM222	*	*MM222
=1	=1	=1
4.e\	.	(8ee\L
.	.	8dd#X\
.	.	8ee\J)
4.d\	6 4 2	(8ee\L
.	.	8dd#y\
.	.	8ee\J)
4.c\	7 3	(8ee\L
.	.	8ff#y\
.	.	8gg\J)
4r	.	(8ee\L
.	.	8ff#y\
8r	.	8gg\J)
=2	=2	=2
4.B\	#	(8ff#y\L
.	.	8ee\
.	.	8ff#y\J)
4.A\	4#| 2	(8b\L
.	.	8cc#X\
.	.	8dd#X\J)
4.G\	6	8ee\L
.	.	8bb\
.	.	8aa\J
4r	.	8gg\L
.	.	8ff#y\
8r	.	8ee\J
=3	=3	=3
4.F#y\	6#/	(8aa\L
.	.	8gg\
.	.	8ff#y\J)
4.E\	.	(8gg\L
.	.	8ff#y\
.	.	8ee\J)
4.D#X\	6	4.b\
4r	.	8r
.	.	8bb\L
8r	.	8aa\J
=4	=4	=4
4.e\	#	(8gg#X\L
.	.	8ff#y\
.	.	8ee\J)
4.E\	7 #	(8dd\L
.	.	8cc\
.	.	8b\J)
4.A\	.	(8cc\L
.	.	8dd\
.	.	8ee\J)
4r	.	4A/
8r	.	8aa\
!!LO:LB:g=original
=5	=5	=5
4.d\	.	(8ff#y\L
.	.	8ee\
.	.	8dd\J)
4.D\	7	(8cc\L
.	.	8b\
.	.	8a\J)
4.G\	.	(8b\L
.	.	8cc\
.	.	8dd\J)
4r	.	4G/
8r	.	8bb\
=6	=6	=6
4.c\	.	(8ee\L
.	.	8ff#y\
.	.	8gg\J)
4.C/	.	(8ee\L
.	.	8ff#y\
.	.	8gg\J)
4.FF#y/	5	(8aa\L
.	.	8gg\
.	.	8aa\J)
4r	.	(8ff#y\L
.	.	8ee\
8r	.	8ff#y\J)
=7	=7	=7
4.F#y\	6	(8dd\L
.	.	8cc\
.	.	8dd\J)
4.D\	7	(8cc\L
.	.	8b\
.	.	8cc\J)
4.G\	.	8b/L
.	.	8a/
.	.	8g/J
4r	.	8f#y/L
.	.	8e/
8r	.	8d/J
=8	=8	=8
4.A\	.	8c/L
.	.	8B/
.	.	8A/J
4.G\	6	8B/L
.	.	8A/
.	.	8G/J
4.F#y\	6	4.d/
8r	.	8dd\L
8r	.	8cc\
8D\	.	8dd\J
=9	=9	=9
4G\	.	4b\
8C/	.	8gg\
4D\	.	4d/
8DD/	.	8ff#y\
4.GG/	.	4.G/
4r	.	8r
.	.	(8b\L
8r	.	8cc\J
!!LO:LB:g=original
=10	=10	=10
4.B\	5	8dd\L
.	.	8ee\
.	.	8ff#y\J
4.BB/	6	8gg\L
.	.	8aa\
.	.	8bb\J)
4.AA/	.	[4.cc\T
4r	.	8cc\L]
.	.	(8a\
8r	.	8b\J
=11	=11	=11
4.A\	5	8cc\L
.	.	8dd\
.	.	8ee\J
4.AA/	6	8ff#y\L
.	.	8gg\
.	.	8aa\J)
4.GG/	.	[4.b\t
4r	.	8b/L]
.	.	(8g/
8r	.	8a/J
=12	=12	=12
4.G\	5	8b\L
.	.	8cc\
.	.	8dd\J
4.GG/	6	8ee\L
.	.	8ff#y\
.	.	8gg\J)
4F#y\	#	4a#X/
8r	.	8ff#y\
4E\	.	4g/
8r	.	8ee\
=13	=13	=13
4D\	6	4f#y/
8r	.	8dd\
4C#X/	6#/	4e/
8r	.	8cc#X\
4BB/	.	4d/
8E\	.	8b\
4F#y\	#	4c#X/
8FF#y/	.	8a#X/
=14	=14	=14
4.BB/	.	4.B/
4r	.	8r
.	.	8bb\L
8r	.	8aa\J
4.e\	.	(8gg\L
.	.	8ff#y\
.	.	8ee\J)
4.B\	.	(8dd\L
.	.	8cc#X\
.	.	8b\J)
!!LO:LB:g=original
=15	=15	=15
4.A#X\	6	4.f#y/
8r	.	(8ff#y\L
8r	.	8ee\
8d\	6	8ff#y\J)
4.e\	.	(8g\L
.	.	8b\
.	.	8ee\J)
4.c#X\	6	(8ee\L
.	.	8dd\
.	.	8ee\J)
=16	=16	=16
4.d\	.	(8f#y/L
.	.	8a/
.	.	8dd/J)
8r	.	(8dd\L
8r	.	8cc#X\
8B\	.	8dd\J)
4.c#X\	5	(8e/L
.	.	8g/
.	.	8cc#y/J)
4.A#X\	6	(8cc#y\L
.	.	8b\
.	.	8cc#y\J)
=17	=17	=17
4.B\	.	8d/L
.	.	8f#y/
.	.	8b/J
4.BB/	.	8dd\L
.	.	8ff#y\
.	.	8bb\J
4.F#y\	#	(8aa#X\L
.	.	8gg#X\
.	.	8ff#y\J)
4.D\	6	&&(8bb\L
.	.	8aa\
.	.	8gg\J&&)
=18	=18	=18
4.E\	.	(8ff#y\L
.	.	8ee\
.	.	8dd\J)
4.F#y\	#	(8cc#X\L
.	.	8b\
.	.	8cc#y\J)
4.BB/	.	8b\L
.	.	(16dd\L
.	.	16cc#y\J)
.	.	8b\J
4r	.	8f#y/L
.	.	8b/
8r	.	8f#y/J
!!LO:LB:g=original
=19	=19	=19
4.BB/	.	8d/L
.	.	8b/
.	.	8f#y/J
4r	.	8d/L
.	.	(16f#y/L
.	.	16e/
8r	.	16d/
.	.	16c#X/JJ)
2.BB/	.	2.B/
=20:|!|:	=20:|!|:	=20:|!|:
*>B	*>B	*>B
4.B\	#	(8bb\L
.	.	8ff#y\
.	.	8ee\J)
4.BB/	.	(8dd#y\L
.	.	8cc#X\
.	.	8b\J)
4.D#X\	5	8a\L
.	.	8ff#y\
.	.	8gg\J
4.BB/	7 #	8aa\L
.	.	8gg\
.	.	8ff#y\J
=21	=21	=21
4.e\	.	(8ee\L
.	.	8b\
.	.	8a\J)
4.E\	#	(8g#X/L
.	.	8f#y/
.	.	8e/J)
4.G#X\	5	8d/L
.	.	8b/
.	.	8cc/J
4.E\	7 #	8dd\L
.	.	8cc\
.	.	8b\J
=22	=22	=22
4.A\	.	(8cc\L
.	.	8b\
.	.	8a\J)
4r	.	8ffn\L
.	.	8ee\
8r	.	8dd\J
4.AA/	.	(8cc\L
.	.	8b\
.	.	8a\J)
4r	.	8g/L
.	.	8fn/
8r	.	8e/J
!!LO:LB:g=original
=23	=23	=23
4.D\	n	(8fn/L
.	.	8e/
.	.	8d/J)
4r	.	8ee\L
.	.	8dd\
8r	.	8cc\J
4.G\	.	(8b/L
.	.	8a/
.	.	8g/J)
4r	.	8f/L
.	.	8e/
8r	.	8d/J
=24	=24	=24
4.C/	.	(8e/L
.	.	8d/
.	.	8c/J)
4r	.	8dd\L
.	.	8cc\
8r	.	8b\J
4.Fn\	.	(8a/L
.	.	8g/
.	.	8fn/J)
4r	.	8e/L
.	.	8d/
8r	.	8c/J
=25	=25	=25
4.G\	.	8B/L
.	.	8c/
.	.	8d/J
4r	.	8e/L
.	.	8fn/
8r	.	8g/J
4.Fn\	.	8a\L
.	.	8b\
.	.	8cc\J
4r	.	8dd\L
.	.	8ee\
8r	.	8ffn\J
=26	=26	=26
4.E\	6	4.g/
4.Fn\	.	4.cc\
4.G\	.	4.G/
4.GG/	.	4.b\
=27	=27	=27
4.C/	.	8c/L
.	.	8e/
.	.	8g/J
8r	.	8cc\L
8r	.	8ee\
8e\	.	8gg\J
4.d\	n	8ffn\L
.	.	8dd\
.	.	8ff\J
4.B\	6	8gg\L
.	.	8dd\
.	.	8gg\J
!!LO:LB:g=original
=28	=28	=28
4.c\	.	8ee\L
.	.	8cc\
.	.	8ee\J
8r	.	8ffn\L
8r	.	8cc\
8A\	6nr	8ff\J
4.B\	5nr	8dd\L
.	.	8b\
.	.	8dd\J
4.G#X\	6	8ee\L
.	.	8b\
.	.	8ee\J
=29	=29	=29
4.A\	.	8cc\L
.	.	8a\
.	.	8cc\J
8r	.	8ee\L
8r	.	8aa\
8c\	6	8ee\J
4.d\	n	8ffn\L
.	.	8dd\
.	.	8ff\J
8r	.	8aa\L
8r	.	8bb\
8D\	#	8ff#X\J
=30	=30	=30
4.E\	#	8gg#X\L
.	.	8ee\
.	.	8gg#y\J
4.C/	6	8aa\L
.	.	8ee\
.	.	8dd\J
4.D\	7 3nr	8cc\L
.	.	8b\
.	.	8a\J
4.E\	6 4	8e/L
.	.	8a/
.	5 #	8g#X/J
=31	=31	=31
4.AA/	.	4.A/
4r	.	8r
.	.	8a/L
8r	.	8b/J
4.AA/	.	8cc\L
.	.	8dd\
.	.	8ee\J
4.A\	6nr	8ffn\L
.	.	8gg\
.	.	8aa\J
!!LO:PB:g=original
=32	=32	=32
4.B\	#	(8dd#X\L
.	.	8cc#X\
.	.	8dd#y\J)
4.A\	4#| 2	(8dd#y\L
.	.	8ee\
.	.	8ff#y\J)
4.G\	6	(8ee\L
.	.	8dd#X\
.	.	8ee\J)
4.E\	.	(8ee\L
.	.	8ff#y\
.	.	8gg\J)
=33	=33	=33
4.B\	#	(8ff#y\L
.	.	8ee\
.	.	8ff#y\J)
4.A\	4#| 2	(8b\L
.	.	8cc#X\
.	.	8dd#X\J)
4.G\	6	8ee\L
.	.	8bb\
.	.	8aa\J
4r	.	8gg\L
.	.	8ff#y\
8r	.	8ee\J
=34	=34	=34
4.F#y\	6#/	(8aa\L
.	.	8gg\
.	.	8ff#y\J)
4.E\	.	(8gg\L
.	.	8ff#y\
.	.	8ee\J)
4.D#X\	6	4.b\t
4r	.	8r
.	.	8r
8r	.	8bb\
=35	=35	=35
4.A\	.	(8ccc\L
.	.	8bb\)
.	.	8ccc\J
4.G\	4 2	(8ccc\L
.	.	8bb\)
.	.	8ccc\J
4.F#y\	6	(8dd\L
.	.	8ee\)
.	.	8ff#y\J
4r	.	4d/
8r	.	8aa\
!!LO:LB:g=original
=36	=36	=36
4.G\	.	(8bb\L
.	.	8aa\)
.	.	8bb\J
4.F#y\	4 2	(8bb\L
.	.	8aa\)
.	.	8bb\J
4.E\	6	(8cc\L
.	.	8dd\)
.	.	8ee\J
4r	.	4c/
8r	.	8gg\
=37	=37	=37
4.c\	6	(8aa\L
.	.	8gg\
.	.	8aa\J)
4.A\	6	(8ff#y\L
.	.	8ee\
.	.	8ff#y\J)
4.B\	#	(8dd#X\L
.	.	8cc#X\
.	.	8b\J)
4.G\	6	4.ee\
=38	=38	=38
4.A\	6	4.f#y/
4.B\	#	4.dd#X\
4.E\	.	8e\L
.	.	8ee\
.	.	8dd\J
4r	.	8cc\L
.	.	8b\
8r	.	8a\J
=39	=39	=39
4.E\	.	(8g/L
.	.	8f#y/
.	.	8e/J)
4r	.	8d/L
.	.	8c/
8r	.	8B/J
4.F#y\	6	8A/L
.	.	8dd\
.	.	8cc\J
4r	.	8b/L
.	.	8a/
8r	.	8g/J
=40	=40	=40
4.D\	.	(8f#y/L
.	.	8e/
.	.	8d/J)
4r	.	8c/L
.	.	8B/
8r	.	8A/J
4.E\	6	8G/L
.	.	8cc\
.	.	8b\J
4r	.	8a/L
.	.	8g/
8r	.	8f#y/J
!!LO:LB:g=original
=41	=41	=41
4.C/	.	8e/L
.	.	8f#y/
.	.	8g/J
4.AA/	.	8a\L
.	.	8b\
.	.	8cc\J
4.BB/	#	4.d#X/
4r	.	4ff#y\
8r	.	8ee\
=42	=42	=42
4.BB/	#	(8dd#X\L
.	.	8ee\
.	.	8ff#y\J)
4r	.	(8ff#y\L
.	.	8gg\
8r	.	8aa\J)
4.BB/	#	(8b\L
.	.	8cc#X\
.	.	8dd#y\J)
4r	.	(8dd#y\L
.	.	8ee\
8r	.	8ff#y\J)
=43	=43	=43
4.BB/	7 #	(8ff#y\L
.	.	8gg#X\
.	.	8aa\J)
4r	.	(8aa\L
.	.	8gg#y\
8r	.	8aa\J)
4.BB/	#	(8b\L
.	.	8cc#X\
.	.	8dd#X\J)
4r	.	(8dd#y\L
.	.	8ee\
8r	.	8ff#y\J)
=44	=44	=44
4.BB/	7 #	(8ff#y\L
.	.	8gg#X\
.	.	8aa\J)
4r	.	(8aa\L
.	.	8gg#y\
8r	.	8aa\J)
4.BB/	#	4.b\
4.GG/	6	(8ee\L
.	.	8dd\
.	.	8cc\J)
=45	=45	=45
4.AA/	7 5	(8b/L
.	.	8a/
.	.	8g/J)
4.BB/	#	(8f#y/L
.	.	8e/
.	.	8f#y/J)
2.E\	.	2.e/
=:|!	=:|!	=:|!
*-	*-	*-
!!!SMS: RV 16 / Estienne Roger, Amsterdam [facs.]
!!!ENC: Fran Bennion; rev. 04/21 E. Correia
!!!END: 2004/12/15
!!!ONB: Converted from MuseData with musedata2hum on Sat May 11 12:07:53 2024
!!!YEM: (C) 2004, 2004 Center for Computer Assisted Research in the Humanities.
!!!system-decoration: [(s1,s2)]
!!!URL-info: https://wiki.ccarh.org/wiki/MuseData:_Antonio_Vivaldi#Op._2:_Sonate_a_violino_e_basso_per_il_cembalo
!!!URL-pdf: https://pdf.musedata.org/vivaldi-op02-no09.pdf#page=4 MuseData edition
!!!URL-pdf: http://conquest.imslp.info/files/imglnks/usimg/b/b7/IMSLP99075-PMLP183164-Vivaldi_-_Sonatas_Op2.pdf#page=34 Estienne Roger Amsterdam: Estienne Roger, No.2, n.d.[1711].
!!!URL-youtube: https://www.youtube.com/watch?v=SiijZmW9jKM&t=3592s L'Arte dell'Arco
!!!title: @{OTL}, mov. @{OMV}
!!!filter-chint: chint -mid
!!!EEV: 2024/05/11
!!!source-file: https://bitbucket.org/musedata/vivaldi/src/master/roger/op2/no09/stage2/03/01
!!!source-file: https://bitbucket.org/musedata/vivaldi/src/master/roger/op2/no09/stage2/03/02
